**kern	**kern
*part1	*part1
*staff2	*staff1
*I"Piano	*
*clefF4	*clefG2
*k[b-e-a-d-]	*k[b-e-a-d-]
=1	=1
8DD-	8ff)
(8D-L	8r
8F	4r
8A-	.
8d-	4r
8fJ)	.
=	=
2.E-	8r
.	(8d-L
.	8e-
.	8a-
.	8g
.	8ee-J)
=	=
8r	8cc
(8AA-L	8r
8E-	4r
8A-	.
8c	4r
8e-J	.
=	=
8a->)	8rff
8r	(8e-L
4r	8a-
.	8cc
4r	8ee-
.	8aa-J)
=	=
*^	*
8r	2.E-	4cc-X
(8FL	.	.
8A-	.	4rdd
8c-X	.	.
8f>	.	4rdd
8a-J>)	.	.
*v	*v	*
=	=
4Dn	8r
.	(8B-L
4r	8f
.	8a-
4r	8b-
.	8aa-J)
=	=
*^	*^
8r	2.E-	[2ggn	2a- 2cc-X
(8FL	.	.	.
8A-	.	.	.
8c-X	.	.	.
8f>	.	8ggL]	4ryy
8a-J>)	.	8ffJ	.
*v	*v	*	*
*	*v	*v
=	=
*-	*-
!!!system-decoration: {(s1,s2)}
!!!RDF**kern: > = above
